src/assets/instagram.svg

<svg width="24" height="24" viewBox="0 0 24 24" fill="none" xmlns="http://www.w3.org/2000/svg">
<path d="M11.999 7.37695C10.7726 7.37695 9.59651 7.86412 8.72934 8.73129C7.86217 9.59846 7.375 10.7746 7.375 12.001C7.375 13.2273 7.86217 14.4034 8.72934 15.2706C9.59651 16.1378 10.7726 16.625 11.999 16.625C13.2254 16.625 14.4015 16.1378 15.2687 15.2706C16.1358 14.4034 16.623 13.2273 16.623 12.001C16.623 10.7746 16.1358 9.59846 15.2687 8.73129C14.4015 7.86412 13.2254 7.37695 11.999 7.37695ZM11.999 15.004C11.2023 15.004 10.4382 14.6875 9.87485 14.1241C9.31149 13.5607 8.995 12.7967 8.995 12C8.995 11.2032 9.31149 10.4392 9.87485 9.8758C10.4382 9.31245 11.2023 8.99595 11.999 8.99595C12.7957 8.99595 13.5598 9.31245 14.1231 9.8758C14.6865 10.4392 15.003 11.2032 15.003 12C15.003 12.7967 14.6865 13.5607 14.1231 14.1241C13.5598 14.6875 12.7957 15.004 11.999 15.004Z" fill="black"/>
<path d="M16.8046 8.28491C17.3999 8.28491 17.8826 7.80227 17.8826 7.20691C17.8826 6.61154 17.3999 6.12891 16.8046 6.12891C16.2092 6.12891 15.7266 6.61154 15.7266 7.20691C15.7266 7.80227 16.2092 8.28491 16.8046 8.28491Z" fill="black"/>
<path d="M20.5349 6.10991C20.3034 5.51209 19.9496 4.96919 19.4962 4.51596C19.0428 4.06274 18.4998 3.70918 17.9019 3.47791C17.2022 3.21526 16.4631 3.07325 15.7159 3.05791C14.7529 3.01591 14.4479 3.00391 12.0059 3.00391C9.56391 3.00391 9.25091 3.00391 8.29591 3.05791C7.54929 3.07246 6.81066 3.21451 6.11191 3.47791C5.51384 3.70891 4.97067 4.06238 4.51724 4.51563C4.06381 4.96889 3.71013 5.51193 3.47891 6.10991C3.21621 6.80952 3.07452 7.54874 3.05991 8.29591C3.01691 9.25791 3.00391 9.56291 3.00391 12.0059C3.00391 14.4479 3.00391 14.7589 3.05991 15.7159C3.07491 16.4639 3.21591 17.2019 3.47891 17.9029C3.71078 18.5007 4.0648 19.0435 4.51834 19.4967C4.97188 19.9499 5.51497 20.3035 6.11291 20.5349C6.81034 20.8081 7.54928 20.9603 8.29791 20.9849C9.26091 21.0269 9.56591 21.0399 12.0079 21.0399C14.4499 21.0399 14.7629 21.0399 15.7179 20.9849C16.465 20.9697 17.2041 20.828 17.9039 20.5659C18.5017 20.3341 19.0445 19.9802 19.4979 19.5269C19.9512 19.0735 20.3051 18.5307 20.5369 17.9329C20.7999 17.2329 20.9409 16.4949 20.9559 15.7469C20.9989 14.7849 21.0119 14.4799 21.0119 12.0369C21.0119 9.59391 21.0119 9.28391 20.9559 8.32691C20.9443 7.56918 20.8018 6.81915 20.5349 6.10991ZM19.3169 15.6419C19.3105 16.2182 19.2053 16.7891 19.0059 17.3299C18.8557 17.7188 18.6258 18.0719 18.331 18.3666C18.0361 18.6613 17.6829 18.891 17.2939 19.0409C16.7591 19.2394 16.1943 19.3445 15.6239 19.3519C14.6739 19.3959 14.4059 19.4069 11.9699 19.4069C9.53191 19.4069 9.28291 19.4069 8.31491 19.3519C7.74483 19.3449 7.18023 19.2397 6.64591 19.0409C6.25559 18.8919 5.90091 18.6626 5.6048 18.3679C5.30868 18.0731 5.07774 17.7195 4.92691 17.3299C4.73035 16.795 4.62522 16.2307 4.61591 15.6609C4.57291 14.7109 4.56291 14.4429 4.56291 12.0069C4.56291 9.56991 4.56291 9.32091 4.61591 8.35191C4.62237 7.77593 4.72756 7.20533 4.92691 6.66491C5.23191 5.87591 5.85691 5.25491 6.64591 4.95291C7.1805 4.75505 7.74493 4.64987 8.31491 4.64191C9.26591 4.59891 9.53291 4.58691 11.9699 4.58691C14.4069 4.58691 14.6569 4.58691 15.6239 4.64191C16.1943 4.64877 16.7593 4.75398 17.2939 4.95291C17.6828 5.10318 18.036 5.33311 18.3309 5.62794C18.6257 5.92276 18.8556 6.27598 19.0059 6.66491C19.2025 7.19986 19.3076 7.76407 19.3169 8.33391C19.3599 9.28491 19.3709 9.55191 19.3709 11.9889C19.3709 14.4249 19.3709 14.6869 19.3279 15.6429H19.3169V15.6419Z" fill="black"/>
</svg>

<svg xmlns="http://www.w3.org/2000/svg" width="24" height="24" fill="none"><path fill="#000" d="M11.999 7.377a4.624 4.624 0 1 0 0 9.248 4.624 4.624 0 0 0 0-9.248m0 7.627a3.004 3.004 0 1 1 0-6.008 3.004 3.004 0 0 1 0 6.008M16.805 8.285a1.078 1.078 0 1 0 0-2.156 1.078 1.078 0 0 0 0 2.156"/><path fill="#000" d="M20.535 6.11a4.6 4.6 0 0 0-2.633-2.632 6.6 6.6 0 0 0-2.186-.42c-.963-.042-1.268-.054-3.71-.054s-2.755 0-3.71.054a6.6 6.6 0 0 0-2.184.42A4.6 4.6 0 0 0 3.479 6.11a6.6 6.6 0 0 0-.42 2.186c-.042.962-.055 1.267-.055 3.71s0 2.753.056 3.71c.015.748.156 1.486.419 2.187a4.6 4.6 0 0 0 2.634 2.632 6.6 6.6 0 0 0 2.185.45c.963.042 1.268.055 3.71.055s2.755 0 3.71-.055a6.6 6.6 0 0 0 2.186-.42 4.61 4.61 0 0 0 2.633-2.632c.263-.7.404-1.438.419-2.186.043-.962.056-1.267.056-3.71s0-2.753-.056-3.71a6.6 6.6 0 0 0-.421-2.217m-1.218 9.532a5 5 0 0 1-.311 1.688 2.99 2.99 0 0 1-1.712 1.71c-.535.2-1.1.305-1.67.312-.95.044-1.218.055-3.654.055-2.438 0-2.687 0-3.655-.055a5 5 0 0 1-1.67-.311 2.99 2.99 0 0 1-1.718-1.711 5.1 5.1 0 0 1-.311-1.67c-.043-.95-.053-1.217-.053-3.653s0-2.686.053-3.655a5 5 0 0 1 .31-1.687c.306-.79.93-1.41 1.72-1.712a5 5 0 0 1 1.669-.311c.95-.043 1.218-.055 3.655-.055s2.687 0 3.654.055a5 5 0 0 1 1.67.31 3 3 0 0 1 1.712 1.713c.197.535.302 1.1.31 1.669.044.95.055 1.218.055 3.655s0 2.698-.043 3.654z"/></svg>
